svg/star-alt-twotone.svg

<svg xmlns="http://www.w3.org/2000/svg" width="24" height="24" viewBox="0 0 24 24">
	<g fill="none" stroke="currentColor" stroke-width="2" stroke-linecap="round" stroke-linejoin="round">
		<path d="M12 3l2.35 5.76l6.21 0.46l-4.76 4.02l1.49 6.04l-5.29 -3.28l-5.29 3.28l1.49 -6.04l-4.76 -4.02l6.21 -0.46Z" fill="currentColor" fill-opacity="0" stroke-dasharray="64" stroke-dashoffset="64">
			<animate attributeName="fill-opacity" values="0;0.3" begin="0.6s" dur="0.15s" fill="freeze" />
			<animate attributeName="stroke-dashoffset" values="64;0" dur="0.6s" fill="freeze" />
		</path>
	</g>
</svg>

<svg xmlns="http://www.w3.org/2000/svg" width="24" height="24" viewBox="0 0 24 24">
	<path d="M12 3L14.35 8.76L20.56 9.22L15.8 13.24L17.29 19.28L12 16L6.71 19.28L8.2 13.24L3.44 9.22L9.65 8.76Z" fill="currentColor" fill-opacity="0" stroke="currentColor" stroke-width="2" stroke-linecap="round" stroke-linejoin="round" stroke-dasharray="64" stroke-dashoffset="64">
		<animate attributeName="stroke-dashoffset" values="64;0" dur="0.6s" fill="freeze" />
		<animate attributeName="fill-opacity" values="0;0.3" begin="0.6s" dur="0.15s" fill="freeze" />
	</path>
</svg>
